**kern	**kern	**kern	**kern	**kern	**kern	**kern	**kern	**kern
*part9	*part8	*part7	*part6	*part5	*part4	*part3	*part2	*part1
*staff9	*staff8	*staff7	*staff6	*staff5	*staff4	*staff3	*staff2	*staff1
*I"Violoncello e Cembalo	*I"Violone di ripieno	*I"Viola di ripieno	*I"Violino 2. di ripieno	*I"Violino 1. di ripieno	*I"Violin	*I"Oboe	*I"Flute	*I"Trumpet
*clefF4	*clefF4	*clefC3	*clefG2	*clefG2	*clefG2	*clefG2	*clefG2	*clefG2
*k[b-]	*k[b-]	*k[b-]	*k[b-]	*k[b-]	*k[b-]	*k[b-]	*k[b-]	*k[b-]
*F:	*F:	*F:	*F:	*F:	*F:	*F:	*F:	*F:
*M2/4	*M2/4	*M2/4	*M2/4	*M2/4	*M2/4	*M2/4	*M2/4	*M2/4
=1	=1	=1	=1	=1	=1	=1	=1	=1
8FL	2r	2r	2r	2r	2r	2r	2r	8ffL
8GJ	.	.	.	.	.	.	.	8cccJ
8AL	.	.	.	.	.	.	.	8cccTL
16GL	.	.	.	.	.	.	.	16bb-L
16AJJ	.	.	.	.	.	.	.	16cccJJ
=2	=2	=2	=2	=2	=2	=2	=2	=2
8B-L	2r	2r	2r	2r	2r	2r	2r	8dddL
16AL	.	.	.	.	.	.	.	16cccL
16GJJ	.	.	.	.	.	.	.	16bb-JJ
8AL	.	.	.	.	.	.	.	8cccL
16FL	.	.	.	.	.	.	.	8fffJ
16GJJ	.	.	.	.	.	.	.	.
=3	=3	=3	=3	=3	=3	=3	=3	=3
8AL	2r	2r	2r	2r	2r	2r	2r	8cccTL
16FL	.	.	.	.	.	.	.	16aaL
16GJJ	.	.	.	.	.	.	.	16bb-JJ
8AL	.	.	.	.	.	.	.	8cccL
16GL	.	.	.	.	.	.	.	16bb-L
16AJJ	.	.	.	.	.	.	.	16cccJJ
=4	=4	=4	=4	=4	=4	=4	=4	=4
8B-L	2r	2r	2r	2r	2r	2r	2r	8dddTL
16AL	.	.	.	.	.	.	.	16cccL
16GJJ	.	.	.	.	.	.	.	16bb-JJ
8AL	.	.	.	.	.	.	.	16cccLL
.	.	.	.	.	.	.	.	16bb-
8dJ	.	.	.	.	.	.	.	16aa
.	.	.	.	.	.	.	.	16cccJJ
=5	=5	=5	=5	=5	=5	=5	=5	=5
8GL	2r	2r	2r	2r	2r	2r	2r	16bb-LL
.	.	.	.	.	.	.	.	16aa
8cJ	.	.	.	.	.	.	.	16gg
.	.	.	.	.	.	.	.	16bb-JJ
8FL	.	.	.	.	.	.	.	16aaLL
.	.	.	.	.	.	.	.	16gg
8AJ	.	.	.	.	.	.	.	16ff
.	.	.	.	.	.	.	.	16aaJJ
=6	=6	=6	=6	=6	=6	=6	=6	=6
8cL	2r	2r	2r	2r	2r	2r	2r	16ggLL
.	.	.	.	.	.	.	.	16ff
8FJ	.	.	.	.	.	.	.	16gg
.	.	.	.	.	.	.	.	16aaJJ
8EL	.	.	.	.	.	.	.	16bb-LL
.	.	.	.	.	.	.	.	16aa
8FJ	.	.	.	.	.	.	.	16gg
.	.	.	.	.	.	.	.	16ffJJ
=7	=7	=7	=7	=7	=7	=7	=7	=7
8CL	2r	2r	2r	2r	2r	8ccL	2r	8ggL
8DJ	.	.	.	.	.	8ggJ	.	8ccJ
8EL	.	.	.	.	.	8ggL	.	4ccc
16DL	.	.	.	.	.	16ffL	.	.
16EJJ	.	.	.	.	.	16ggJJ	.	.
=8	=8	=8	=8	=8	=8	=8	=8	=8
8FL	2r	2r	2r	2r	2r	8aaL	2r	4ccc
16EL	.	.	.	.	.	16ggL	.	.
16DJJ	.	.	.	.	.	16ffJJ	.	.
8EL	.	.	.	.	.	8ggL	.	4ccc
16CL	.	.	.	.	.	8cccJ	.	.
16DJJ	.	.	.	.	.	.	.	.
=9	=9	=9	=9	=9	=9	=9	=9	=9
8EL	2r	2r	2r	2r	2r	8ggL	2r	4ccc
16CL	.	.	.	.	.	16eeL	.	.
16DJJ	.	.	.	.	.	16ffJJ	.	.
8EL	.	.	.	.	.	8ggL	.	4ccc
16DL	.	.	.	.	.	16ffL	.	.
16EJJ	.	.	.	.	.	16ggJJ	.	.
=10	=10	=10	=10	=10	=10	=10	=10	=10
8F	2r	2r	2r	2r	2r	8aaL	2r	8ccc
8r	.	.	.	.	.	16ggL	.	4ddd
.	.	.	.	.	.	16ffJJ	.	.
8E	.	.	.	.	.	16ggLL	.	.
.	.	.	.	.	.	16ff	.	.
8r	.	.	.	.	.	16ee	.	[8ccc
.	.	.	.	.	.	16ggJJ	.	.
=11	=11	=11	=11	=11	=11	=11	=11	=11
8D	2r	2r	2r	2r	2r	16ffLL	2r	8cccL]
.	.	.	.	.	.	16ee	.	.
8r	.	.	.	.	.	16dd	.	8bbnJ
.	.	.	.	.	.	16ffJJ	.	.
8C	.	.	.	.	.	16eeLL	.	16cccLL
.	.	.	.	.	.	16dd	.	16bb
8r	.	.	.	.	.	16cc	.	16aa
.	.	.	.	.	.	16eeJJ	.	16cccJJ
=12	=12	=12	=12	=12	=12	=12	=12	=12
8GL	2r	2r	2r	2r	2r	16ddLL	2r	16bbnLL
.	.	.	.	.	.	16cc	.	16aa
8CJ	.	.	.	.	.	16dd	.	16bb
.	.	.	.	.	.	16eeJJ	.	16cccJJ
8BBnL	.	.	.	.	.	16ffLL	.	16dddLL
.	.	.	.	.	.	16ee	.	16ccc
8CJ	.	.	.	.	.	16dd	.	16bb
.	.	.	.	.	.	16ccJJ	.	16aaJJ
=13	=13	=13	=13	=13	=13	=13	=13	=13
4GG	2r	2r	2r	2r	2r	8ddL	2r	16bbnLL
.	.	.	.	.	.	.	.	16aa
.	.	.	.	.	.	8gJ	.	16gg
.	.	.	.	.	.	.	.	16aaJJ
8r	.	.	.	.	.	[4gg	.	16bbLL
.	.	.	.	.	.	.	.	16ccc
8G	.	.	.	.	.	.	.	16aa
.	.	.	.	.	.	.	.	16bbJJ
=14	=14	=14	=14	=14	=14	=14	=14	=14
8AL	2r	2r	2r	2r	2r	8ggL]	2r	16cccLL
.	.	.	.	.	.	.	.	16ddd
16GL	.	.	.	.	.	16ffL	.	16bbn
16AJJ	.	.	.	.	.	16eeJJ	.	16cccJJ
8BnL	.	.	.	.	.	8ffL	.	16dddLL
.	.	.	.	.	.	.	.	16bb
16AL	.	.	.	.	.	8ffJ	.	16ccc
16BJJ	.	.	.	.	.	.	.	16dddJJ
=15	=15	=15	=15	=15	=15	=15	=15	=15
4c	2r	2r	2r	2r	2r	16eeLL	2r	8ggL
.	.	.	.	.	.	16dd	.	.
.	.	.	.	.	.	16cc	.	8ccJ
.	.	.	.	.	.	16ddJJ	.	.
8r	.	.	.	.	.	16eeLL	.	[4ccc
.	.	.	.	.	.	16ff	.	.
8C	.	.	.	.	.	16dd	.	.
.	.	.	.	.	.	16eeJJ	.	.
=16	=16	=16	=16	=16	=16	=16	=16	=16
8DL	2r	2r	2r	2r	2r	16ffLL	2r	8cccL]
.	.	.	.	.	.	16gg	.	.
16CL	.	.	.	.	.	16ee	.	16bb-L
16DJJ	.	.	.	.	.	16ffJJ	.	16aaJJ
8EL	.	.	.	.	.	16ggLL	.	8bb-L
.	.	.	.	.	.	16ee	.	.
16DL	.	.	.	.	.	16ff	.	8bb-J
16EJJ	.	.	.	.	.	16ggJJ	.	.
=17	=17	=17	=17	=17	=17	=17	=17	=17
4F	2r	2r	2r	2r	2r	16ccLL	2r	16aaLL
.	.	.	.	.	.	16b-	.	16gg
.	.	.	.	.	.	16a	.	16ff
.	.	.	.	.	.	16b-JJ	.	16ggJJ
8r	.	.	.	.	.	16ccLL	.	16aaLL
.	.	.	.	.	.	16dd	.	16bb-
[8F	.	.	.	.	.	16b-	.	16gg
.	.	.	.	.	.	16ccJJ	.	16aaJJ
=18	=18	=18	=18	=18	=18	=18	=18	=18
8FL]	2r	2r	2r	2r	2r	16ddLL	2r	16bb-LL
.	.	.	.	.	.	16ee-X	.	16ccc
8E-XJ	.	.	.	.	.	16cc	.	16aa
.	.	.	.	.	.	16ddJJ	.	16bb-JJ
8DL	.	.	.	.	.	16ee-LL	.	16cccLL
.	.	.	.	.	.	16ff	.	16ddd
8CJ	.	.	.	.	.	16dd	.	16bb-
.	.	.	.	.	.	16ee-JJ	.	16cccJJ
=19	=19	=19	=19	=19	=19	=19	=19	=19
4BB-	2r	2r	2r	2r	2r	16ffLL	2r	16dddLL
.	.	.	.	.	.	16ee-X	.	16ccc
.	.	.	.	.	.	16ff	.	16ddd
.	.	.	.	.	.	16ggJJ	.	16eee-XJJ
8r	.	.	.	.	.	16ffLL	.	16dddLL
.	.	.	.	.	.	16dd	.	16ccc
8B-	.	.	.	.	.	16gg	.	16bb-
.	.	.	.	.	.	16ffJJ	.	16aaJJ
=20	=20	=20	=20	=20	=20	=20	=20	=20
8cL	2r	2r	2r	2r	2r	16eenLL	2r	16ggLL
.	.	.	.	.	.	16dd	.	16ff
8B-J	.	.	.	.	.	16ee	.	16gg
.	.	.	.	.	.	16ffJJ	.	16aaJJ
8AL	.	.	.	.	.	16ggLL	.	16bb-LL
.	.	.	.	.	.	16ff	.	16aa
8GJ	.	.	.	.	.	16ee	.	16bb-
.	.	.	.	.	.	16ggJJ	.	16ggJJ
=21	=21	=21	=21	=21	=21	=21	=21	=21
8FL	2r	2r	2r	2r	8fL	8cc	2r	8aaL
16AL	.	.	.	.	8ccJ	8r	.	16ffL
16GJJ	.	.	.	.	.	.	.	16ggJJ
8FL	.	.	.	.	8ccTL	8ff	.	8aaL
8FFJ	.	.	.	.	16b-L	8r	.	16ggL
.	.	.	.	.	16ccJJ	.	.	16aaJJ
=22	=22	=22	=22	=22	=22	=22	=22	=22
8BB-L	2r	2r	2r	2r	8ddL	8ff	2r	8bb-L
8B-J	.	.	.	.	16ccL	8r	.	16aaL
.	.	.	.	.	16b-JJ	.	.	16ggJJ
8FL	.	.	.	.	8ccL	8ff	.	8aaL
16AL	.	.	.	.	8ffJ	8r	.	16ffL
16GJJ	.	.	.	.	.	.	.	16ggJJ
=23	=23	=23	=23	=23	=23	=23	=23	=23
8FL	2r	2r	2r	2r	8ccL	8ff	2r	8aaL
16AL	.	.	.	.	16aL	8r	.	16ffL
16GJJ	.	.	.	.	16b-JJ	.	.	16ggJJ
8FL	.	.	.	.	8ccL	8ff	.	8aaL
8FFJ	.	.	.	.	16b-L	8r	.	16ggL
.	.	.	.	.	16ccJJ	.	.	16aaJJ
=24	=24	=24	=24	=24	=24	=24	=24	=24
8BB-	2r	2r	2r	2r	8ddL	8ff	2r	8bb-
8r	.	.	.	.	16ccL	4gg	.	8r
.	.	.	.	.	16b-JJ	.	.	.
8F	.	.	.	.	16ccLL	.	.	8aa
.	.	.	.	.	16b-	.	.	.
8r	.	.	.	.	16a	[8ff	.	8r
.	.	.	.	.	16ccJJ	.	.	.
=25	=25	=25	=25	=25	=25	=25	=25	=25
8GL	2r	2r	2r	2r	16b-LL	8ffL]	2r	8gg
.	.	.	.	.	16a	.	.	.
8GGJ	.	.	.	.	16g	8eeJ	.	8r
.	.	.	.	.	16b-JJ	.	.	.
8AAL	.	.	.	.	16aLL	16ffLL	.	8ff
.	.	.	.	.	16g	16ee	.	.
8BB-J	.	.	.	.	16f	16dd	.	8r
.	.	.	.	.	16aJJ	16ffJJ	.	.
=26	=26	=26	=26	=26	=26	=26	=26	=26
8CL	2r	2r	2r	2r	16gLL	16eeLL	2r	8cc
.	.	.	.	.	16f	16dd	.	.
8cJ	.	.	.	.	16g	16ee	.	8r
.	.	.	.	.	16aJJ	16ffJJ	.	.
8AL	.	.	.	.	16b-LL	16ggLL	.	8f
.	.	.	.	.	16a	16ff	.	.
8FJ	.	.	.	.	16g	16ee	.	8r
.	.	.	.	.	16fJJ	16ddJJ	.	.
=27	=27	=27	=27	=27	=27	=27	=27	=27
8CL	2r	2r	2r	2r	8gL	8eeL	8ccL	8cc
16EL	.	.	.	.	8cJ	16ccL	8ggJ	8r
16DJJ	.	.	.	.	.	16ddJJ	.	.
8CL	.	.	.	.	8cc	8eeL	8ggTL	4r
8CCJ	.	.	.	.	8r	16ddL	16ffL	.
.	.	.	.	.	.	16eeJJ	16ggJJ	.
=28	=28	=28	=28	=28	=28	=28	=28	=28
8FFL	2r	2r	2r	2r	8cc	8ffL	8aatL	2r
8FJ	.	.	.	.	8r	16eeL	16ggL	.
.	.	.	.	.	.	16ddJJ	16ffJJ	.
8CL	.	.	.	.	8cc	8eeL	8ggL	.
16EL	.	.	.	.	8r	16ccL	8cccJ	.
16DJJ	.	.	.	.	.	16ddJJ	.	.
=29	=29	=29	=29	=29	=29	=29	=29	=29
8CL	2r	2r	2r	2r	8cc	8eeL	8ggTL	2r
16EL	.	.	.	.	8r	16ccL	16eeL	.
16DJJ	.	.	.	.	.	16ddJJ	16ffJJ	.
8CL	.	.	.	.	8cc	8eeL	8ggTL	.
8CCJ	.	.	.	.	8r	16ccL	16ffL	.
.	.	.	.	.	.	16ddJJ	16ggJJ	.
=30	=30	=30	=30	=30	=30	=30	=30	=30
8FF	2r	2r	2r	2r	8cc	4ff	8aatL	2r
8r	.	.	.	.	4dd	.	16ggL	.
.	.	.	.	.	.	.	16ffJJ	.
8C	.	.	.	.	.	4ee	16ggLL	.
.	.	.	.	.	.	.	16ff	.
8r	.	.	.	.	[8cc	.	16ee	.
.	.	.	.	.	.	.	16ggJJ	.
=31	=31	=31	=31	=31	=31	=31	=31	=31
8DL	2r	2r	2r	2r	8ccL]	4dd	16ffLL	2r
.	.	.	.	.	.	.	16ee	.
8DDJ	.	.	.	.	8bnJ	.	16dd	.
.	.	.	.	.	.	.	16ffJJ	.
8EEL	.	.	.	.	16ccLL	4cc	16eeLL	.
.	.	.	.	.	16b	.	16dd	.
8FFJ	.	.	.	.	16a	.	16cc	.
.	.	.	.	.	16ccJJ	.	16eeJJ	.
=32	=32	=32	=32	=32	=32	=32	=32	=32
8GGL	2r	2r	2r	2r	16bnLL	4g	16ddLL	2r
.	.	.	.	.	16a	.	16cc	.
8GJ	.	.	.	.	16b	.	16dd	.
.	.	.	.	.	16ccJJ	.	16eeJJ	.
8EL	.	.	.	.	16ddLL	4g	16ffLL	.
.	.	.	.	.	16cc	.	16ee	.
8CJ	.	.	.	.	16b	.	16dd	.
.	.	.	.	.	16aJJ	.	16ccJJ	.
=33	=33	=33	=33	=33	=33	=33	=33	=33
8GGL	2r	2r	2r	2r	4bn	4g	8ddL	2r
8GJ	.	.	.	.	.	.	8gJ	.
8EL	.	.	.	.	8r	8r	[4cc	.
8CJ	.	.	.	.	8ee	8g	.	.
=34	=34	=34	=34	=34	=34	=34	=34	=34
8FL	2r	2r	2r	2r	[4a	8aL	16ccLL]	2r
.	.	.	.	.	.	.	16a	.
8AJ	.	.	.	.	.	8cJ	16f	.
.	.	.	.	.	.	.	16aJJ	.
8FL	.	.	.	.	16aLL]	8fL	[4dd	.
.	.	.	.	.	16dd	.	.	.
8DJ	.	.	.	.	16ff	8aJ	.	.
.	.	.	.	.	16ddJJ	.	.	.
=35	=35	=35	=35	=35	=35	=35	=35	=35
8GL	2r	2r	2r	2r	[4bn	8bnL	16ddLL]	2r
.	.	.	.	.	.	.	16bn	.
8BnJ	.	.	.	.	.	8dJ	16g	.
.	.	.	.	.	.	.	16bJJ	.
8GL	.	.	.	.	16bLL]	8gL	[4ee	.
.	.	.	.	.	16ee	.	.	.
8EJ	.	.	.	.	16gg	8bJ	.	.
.	.	.	.	.	16eeJJ	.	.	.
=36	=36	=36	=36	=36	=36	=36	=36	=36
8AL	2r	2r	2r	2r	[4cc	8ccL	16eeLL]	2r
.	.	.	.	.	.	.	16cc	.
8cJ	.	.	.	.	.	8eJ	16a	.
.	.	.	.	.	.	.	16ccJJ	.
8AL	.	.	.	.	16ccLL]	8gL	[4ff	.
.	.	.	.	.	16ff	.	.	.
8FJ	.	.	.	.	16aa	8ccJ	.	.
.	.	.	.	.	16ffJJ	.	.	.
=37	=37	=37	=37	=37	=37	=37	=37	=37
8BnL	2r	2r	2r	2r	[4dd	8ddL	16ffLL]	2r
.	.	.	.	.	.	.	16dd	.
8dJ	.	.	.	.	.	8gJ	16bn	.
.	.	.	.	.	.	.	16ddJJ	.
8BL	.	.	.	.	16ddLL]	8bnL	16ggLL	.
.	.	.	.	.	16cc	.	16aa	.
8GJ	.	.	.	.	16bn	8ddJ	16gg	.
.	.	.	.	.	16aJJ	.	16ffJJ	.
=38	=38	=38	=38	=38	=38	=38	=38	=38
8cL	2r	2r	2r	2r	16gLL	8ccL	16eeLL	2r
.	.	.	.	.	16f	.	16dd	.
8EJ	.	.	.	.	16e	8gJ	16cc	.
.	.	.	.	.	16gJJ	.	16eeJJ	.
8FL	.	.	.	.	16fLL	8aL	16ddLL	.
.	.	.	.	.	16e	.	16cc	.
8GJ	.	.	.	.	16d	8gJ	16bn	.
.	.	.	.	.	16fJJ	.	16ddJJ	.
=39	=39	=39	=39	=39	=39	=39	=39	=39
8AL	2r	2r	2r	2r	4e	16ccLL	16ccLL	2r
.	.	.	.	.	.	16bn	16g	.
16GL	.	.	.	.	.	16cc	16a	.
16FJJ	.	.	.	.	.	16ddJJ	16bnJJ	.
8EL	.	.	.	.	16r	8eeL	16ccLL	.
.	.	.	.	.	16bnLL	.	16dd	.
8DJ	.	.	.	.	16cc	8ggJ	16ee	.
.	.	.	.	.	16ddJJ	.	16ffJJ	.
=40	=40	=40	=40	=40	=40	=40	=40	=40
16CLL	2r	2r	2r	2r	16eeLL	8.eeL	8ggL	2r
16D	.	.	.	.	16ff	.	.	.
16E	.	.	.	.	16gg	.	8ccJ	.
16FJJ	.	.	.	.	16aaJJ	16ddJk	.	.
8GL	.	.	.	.	16ddLL	8.ddL	8gL	.
.	.	.	.	.	16ee	.	.	.
8GGJ	.	.	.	.	16ff	.	8bnJ	.
.	.	.	.	.	16ggJJ	16ccJk	.	.
=41	=41	=41	=41	=41	=41	=41	=41	=41
4C	2r	2r	2r	2r	8eeL	8ccL	4cc	8ccL
.	.	.	.	.	16ccL	16eeL	.	8ggJ
.	.	.	.	.	16ddJJ	16ddJJ	.	.
4r	.	.	.	.	8eeL	8ccL	4ccc	8ggL
.	.	.	.	.	16ddL	8cJ	.	16ffL
.	.	.	.	.	16eeJJ	.	.	16ggJJ
=42	=42	=42	=42	=42	=42	=42	=42	=42
2r	2r	2r	2r	2r	8ffL	8fL	4ccc	8aaL
.	.	.	.	.	16eeL	8ffJ	.	16ggL
.	.	.	.	.	16ddJJ	.	.	16ffJJ
.	.	.	.	.	8eeL	8ccL	4ccc	8ggL
.	.	.	.	.	16ccL	16eeL	.	8cccJ
.	.	.	.	.	16ddJJ	16ddJJ	.	.
=43	=43	=43	=43	=43	=43	=43	=43	=43
2r	2r	2r	2r	2r	8eeL	8ccL	4ccc	8ggL
.	.	.	.	.	16ccL	16eeL	.	16aaL
.	.	.	.	.	16ddJJ	16ddJJ	.	16ffJJ
.	.	.	.	.	8eeL	8ccL	4ccc	8ggL
.	.	.	.	.	16ddL	8cJ	.	16ffL
.	.	.	.	.	16eeJJ	.	.	16ggJJ
=44	=44	=44	=44	=44	=44	=44	=44	=44
2r	2r	2r	2r	2r	4ff	4f	8ccc	8aaL
.	.	.	.	.	.	.	4ddd	16ggL
.	.	.	.	.	.	.	.	16ffJJ
.	.	.	.	.	4ee	4cc	.	16ggLL
.	.	.	.	.	.	.	.	16ccc
.	.	.	.	.	.	.	[8ccc	16ddd
.	.	.	.	.	.	.	.	16eeeJJ
=45	=45	=45	=45	=45	=45	=45	=45	=45
2r	2r	2r	2r	2r	4dd	8ddL	8cccL]	16fffLL
.	.	.	.	.	.	.	.	16eee
.	.	.	.	.	.	8dJ	8bbnJ	16ddd
.	.	.	.	.	.	.	.	16fffJJ
.	.	.	.	.	4cc	8eL	16cccLL	16eeeLL
.	.	.	.	.	.	.	16bb	16ddd
.	.	.	.	.	.	8fJ	16aa	16ccc
.	.	.	.	.	.	.	16cccJJ	16eeeJJ
=46	=46	=46	=46	=46	=46	=46	=46	=46
2r	2r	2r	2r	2r	4gg	8gL	16bbnLL	16dddLL
.	.	.	.	.	.	.	16aa	16ccc
.	.	.	.	.	.	8ggJ	16bb	16ddd
.	.	.	.	.	.	.	16cccJJ	16eeeJJ
.	.	.	.	.	4gg	8eeL	16dddLL	16fffLL
.	.	.	.	.	.	.	16ccc	16eee
.	.	.	.	.	.	8ccJ	16bb	16ddd
.	.	.	.	.	.	.	16aaJJ	16cccJJ
=47	=47	=47	=47	=47	=47	=47	=47	=47
8r	4r	4r	4r	4r	4gg	8gL	16bbnLL	8dddL
.	.	.	.	.	.	.	16aa	.
16GLL	.	.	.	.	.	8ddJ	16bb	8ggJ
16AJJ	.	.	.	.	.	.	16cccJJ	.
16BnLL	8Bn	8bn	8dd	8gg	8r	8ggL	16dddLL	8r
16c	.	.	.	.	.	.	16eee	.
16A	8r	8r	8r	8r	8ee	8ggJ	16ccc	8gg
16BJJ	.	.	.	.	.	.	16dddJJ	.
=48	=48	=48	=48	=48	=48	=48	=48	=48
16cLL	8c	8a	8ee	8gg	8aaL	8ggL	16eeeLL	8cccL
16d	.	.	.	.	.	.	16fff	.
16Bn	8r	8r	8r	8r	8aaJ	16aaL	16ddd	8cccJ
16cJJ	.	.	.	.	.	16ggJJ	16eeeJJ	.
16dLL	8d	8a	8dd	8ff	8aaL	8ffL	16fffLL	8cccL
16B	.	.	.	.	.	.	16ddd	.
16c	8r	8r	8r	8r	16ggL	8ffJ	16eee	16bbnL
16dJJ	.	.	.	.	16ffJJ	.	16fffJJ	16aaJJ
=49	=49	=49	=49	=49	=49	=49	=49	=49
16GLL	8G	8bn	8dd	8ff	8ggL	8ffL	16bbnLL	8bbnL
16Bn	.	.	.	.	.	.	16ddd	.
16E	8r	8r	8r	8r	8ggJ	16ggL	16gg	8bbJ
16FJJ	.	.	.	.	.	16ffJJ	16aaJJ	.
16GLL	8G	8g	8bn	8ee	8ggL	8eeL	16bbLL	8bbL
16A	.	.	.	.	.	.	16ccc	.
16F	8r	8r	8r	8r	16aaL	8eeJ	16aa	16cccL
16GJJ	.	.	.	.	16ggJJ	.	16bbJJ	16bbJJ
=50	=50	=50	=50	=50	=50	=50	=50	=50
16ALL	8A	8f	8cc	8ee	8ffL	8eeL	16cccLL	8aaL
16Bn	.	.	.	.	.	.	16ddd	.
16G	8r	8r	8r	8r	8ffJ	16ffL	16bbn	8aaJ
16AJJ	.	.	.	.	.	16eeJJ	16cccJJ	.
16BLL	8Bn	8f	8g	8dd	8ffL	8ddL	16dddLL	8aaL
16G	.	.	.	.	.	.	16bb	.
16A	8r	8r	8r	8r	16eeL	8ddJ	16ccc	16ggL
16BJJ	.	.	.	.	16ddJJ	.	16dddJJ	16ffJJ
=51	=51	=51	=51	=51	=51	=51	=51	=51
16ELL	8E	8e	8g	8dd	8eeL	8ddL	16ggLL	8ggL
16G	.	.	.	.	.	.	16bbn	.
16C	8r	8r	8r	8r	8eeJ	16eeL	16ee	8ggJ
16DJJ	.	.	.	.	.	16ddJJ	16ff#XJJ	.
16ELL	8E	8e	8g	8cc	8eeL	8ccL	16ggLL	8ggL
16F	.	.	.	.	.	.	16aa	.
16D	8r	8r	8r	8r	16ffL	8ccJ	16ff#	16aaL
16EJJ	.	.	.	.	16eeJJ	.	16ggJJ	16ggJJ
=52	=52	=52	=52	=52	=52	=52	=52	=52
16FLL	8F	8d	8a	8cc	8ddL	8ccL	16aaLL	8ffL
16G	.	.	.	.	.	.	16bbn	.
16E	8r	8r	8r	8r	8ddJ	16bnL	16ccc	8aaJ
16FJJ	.	.	.	.	.	16aJJ	16dddJJ	.
16GLL	8G	8d	8g	8bn	8ddL	8ffL	16bbLL	8bbnL
16E	.	.	.	.	.	.	16ddd	.
16F	8r	8r	8r	8r	16ccL	16eeL	16gg	8dddJ
16GJJ	.	.	.	.	16bnJJ	16ddJJ	16ff#XJJ	.
=53	=53	=53	=53	=53	=53	=53	=53	=53
8CL	8CL	[2c	8gL	[2ee	4cc	16ggLL	8eeL	16eeeLL
.	.	.	.	.	.	16aa	.	16fff
8DJ	8DJ	.	16ccL	.	.	16gg	8ggJ	16eee
.	.	.	16bnJJ	.	.	16ffJJ	.	16dddJJ
8EL	8EL	.	8ccL	.	8r	8eeL	[4ccc	16cccLL
.	.	.	.	.	.	.	.	16bbn
8CJ	8CJ	.	8gJ	.	[8ee	8ggJ	.	16aa
.	.	.	.	.	.	.	.	16ggJJ
=54	=54	=54	=54	=54	=54	=54	=54	=54
8FFL	8FFL	8c]	4a	8eeL]	8eeL]	8ggL	16cccLL]	16aaLL
.	.	.	.	.	.	.	16ddd	16bbn
16FL	16FL	4f	.	8ccJ	8aJ	8ccJ	16bbn	16gg
16EJJ	16EJJ	.	.	.	.	.	16cccJJ	16aaJJ
8DL	8DL	.	8ddL	8ffL	8ddL	8ffL	16dddLL	16bbLL
.	.	.	.	.	.	.	16eee	16ccc
16GL	16GL	[8g	8bnJ	8ddJ	8bnJ	8ddJ	16ccc	16aa
16FJJ	16FJJ	.	.	.	.	.	16dddJJ	16bbJJ
=55	=55	=55	=55	=55	=55	=55	=55	=55
8EL	8EL	8g]	4ee	[2gg	8ggL	8gL	16eeeLL	16cccLL
.	.	.	.	.	.	.	16fff	16ddd
16DL	16DL	4f	.	.	16ffL	8ggJ	16ggg	16bbn
16CJJ	16CJJ	.	.	.	16eeJJ	.	16eeeJJ	16cccJJ
8BBnL	8BBnL	.	[4dd	.	4dd	8ggL	8fffL	16dddLL
.	.	.	.	.	.	.	.	16ccc
8GGJ	8GGJ	16eLL	.	.	.	8ddJ	[8fffJ	16bb
.	.	16dJJ	.	.	.	.	.	16aaJJ
=56	=56	=56	=56	=56	=56	=56	=56	=56
8CL	8CL	8cL	8ddL]	16ggLL]	2r	8gL	8fffL]	8ggL
.	.	.	.	16ff	.	.	.	.
16EL	16EL	8gJ	8ccJ	16gg	.	8ggJ	16eeeL	16cccL
16FJJ	16FJJ	.	.	16aaJJ	.	.	16dddJJ	16dddJJ
8GL	8GL	8bnL	8gL	16ddLL	.	8ggL	8.dddL	8.bbnL
.	.	.	.	16gg	.	.	.	.
8GGJ	8GGJ	8gJ	8bnJ	16ff	.	8ddJ	.	.
.	.	.	.	16ggJJ	.	.	16cccJk	16cccJk
=57	=57	=57	=57	=57	=57	=57	=57	=57
8C	4C	4g	8gL	8eeL	8cL	4ee	8cccL	4ccc
8r	.	.	8eJ	8ccJ	8gJ	.	16ccL	.
.	.	.	.	.	.	.	16ddJJ	.
8C	4r	4r	4r	4r	8gL	4r	8eeL	4r
8r	.	.	.	.	16fL	.	16ddL	.
.	.	.	.	.	16gJJ	.	16eeJJ	.
=58	=58	=58	=58	=58	=58	=58	=58	=58
8C	2r	2r	2r	2r	8aL	2r	8ffL	2r
8r	.	.	.	.	16gL	.	16eeL	.
.	.	.	.	.	16fJJ	.	16ddJJ	.
8C	.	.	.	.	8gL	.	8eeL	.
8r	.	.	.	.	8ccJ	.	16ccL	.
.	.	.	.	.	.	.	16ddJJ	.
=59	=59	=59	=59	=59	=59	=59	=59	=59
8C	2r	2r	2r	2r	8gL	2r	8eeL	2r
8r	.	.	.	.	16eL	.	16ccL	.
.	.	.	.	.	16fJJ	.	16ddJJ	.
8CL	.	.	.	.	8gL	.	8eeL	.
16DL	.	.	.	.	16fL	.	[8eeeJ	.
16EJJ	.	.	.	.	16gJJ	.	.	.
=60	=60	=60	=60	=60	=60	=60	=60	=60
8FL	2r	2r	2r	2r	8aL	2r	8eee]	2r
16EL	.	.	.	.	16gL	.	4ddd	.
16DJJ	.	.	.	.	16fJJ	.	.	.
8EL	.	.	.	.	16gLL	.	.	.
.	.	.	.	.	16f	.	.	.
8AJ	.	.	.	.	16e	.	[8ccc	.
.	.	.	.	.	16gJJ	.	.	.
=61	=61	=61	=61	=61	=61	=61	=61	=61
8DL	2r	2r	2r	2r	16fLL	2r	8cccL]	2r
.	.	.	.	.	16e	.	.	.
8GJ	.	.	.	.	16d	.	8bbnJ	.
.	.	.	.	.	16fJJ	.	.	.
8CL	.	.	.	.	16eLL	.	16cccLL	.
.	.	.	.	.	16d	.	16bb	.
8CCJ	.	.	.	.	16c	.	16aa	.
.	.	.	.	.	16eJJ	.	16cccJJ	.
=62	=62	=62	=62	=62	=62	=62	=62	=62
8GGL	2r	2r	2r	2r	16dLL	2r	16bbnLL	2r
.	.	.	.	.	16c	.	16aa	.
8CJ	.	.	.	.	16d	.	16bb	.
.	.	.	.	.	16eJJ	.	16cccJJ	.
8BBnL	.	.	.	.	16fLL	.	16dddLL	.
.	.	.	.	.	16e	.	16ccc	.
8CJ	.	.	.	.	16d	.	16bb	.
.	.	.	.	.	16cJJ	.	16aaJJ	.
=63	=63	=63	=63	=63	=63	=63	=63	=63
4GG	2r	2r	2r	2r	16dLL	2r	16bbnLL	2r
.	.	.	.	.	16c	.	16aa	.
.	.	.	.	.	16Bn	.	16gg	.
.	.	.	.	.	16cJJ	.	16aaJJ	.
8r	.	.	.	.	16dLL	.	16bbLL	.
.	.	.	.	.	16c	.	16aa	.
[8G	.	.	.	.	16d	.	16bb	.
.	.	.	.	.	16fJJ	.	16dddJJ	.
=64	=64	=64	=64	=64	=64	=64	=64	=64
8GL]	2r	2r	2r	2r	16eLL	2r	16ccc#XLL	2r
.	.	.	.	.	16d	.	16bbn	.
8FJ	.	.	.	.	16e	.	16ccc#	.
.	.	.	.	.	16fJJ	.	16dddJJ	.
8C#XL	.	.	.	.	16gLL	.	16eeeLL	.
.	.	.	.	.	16f	.	16ddd	.
8DJ	.	.	.	.	16e	.	16ccc#	.
.	.	.	.	.	16dJJ	.	16bbJJ	.
=65	=65	=65	=65	=65	=65	=65	=65	=65
4AA	2r	2r	2r	2r	16eLL	2r	16ccc#XLL	2r
.	.	.	.	.	16d	.	16bbn	.
.	.	.	.	.	16c#X	.	16aa	.
.	.	.	.	.	16dJJ	.	16bbJJ	.
8r	.	.	.	.	16eLL	.	16ccc#LL	.
.	.	.	.	.	16d	.	16bb	.
8A	.	.	.	.	16e	.	16ccc#	.
.	.	.	.	.	16gJJ	.	16eeeJJ	.
=66	=66	=66	=66	=66	=66	=66	=66	=66
8DL	2r	2r	2r	2r	8fL	8ddL	4ddd	2r
16FL	.	.	.	.	16dL	8aaJ	.	.
16EJJ	.	.	.	.	16eJJ	.	.	.
8DL	.	.	.	.	8fL	8aaL	4ddd	.
8DDJ	.	.	.	.	16eL	16ggL	.	.
.	.	.	.	.	16fJJ	16aaJJ	.	.
=67	=67	=67	=67	=67	=67	=67	=67	=67
8GGL	2r	2r	2r	2r	8gL	8bb-L	4ddd	2r
8GJ	.	.	.	.	16fL	16aaL	.	.
.	.	.	.	.	16eJJ	16ggJJ	.	.
8DL	.	.	.	.	8fL	8aaL	4ddd	.
16FL	.	.	.	.	16dL	8dddJ	.	.
16EJJ	.	.	.	.	16eJJ	.	.	.
=68	=68	=68	=68	=68	=68	=68	=68	=68
8DL	2r	2r	2r	2r	8fL	8aaL	4ddd	2r
16FL	.	.	.	.	16dL	16ffL	.	.
16EJJ	.	.	.	.	16eJJ	16ggJJ	.	.
8DL	.	.	.	.	8fL	8aaL	4ddd	.
8DDJ	.	.	.	.	16eL	16ggL	.	.
.	.	.	.	.	16fJJ	16aaJJ	.	.
=69	=69	=69	=69	=69	=69	=69	=69	=69
8GG	2r	2r	2r	2r	4g	8bb-L	8ddd	2r
8r	.	.	.	.	.	16aaL	4eee	.
.	.	.	.	.	.	16ggJJ	.	.
8D	.	.	.	.	4f	16aaLL	.	.
.	.	.	.	.	.	16gg	.	.
8r	.	.	.	.	.	16ff	[8ddd	.
.	.	.	.	.	.	16aaJJ	.	.
=70	=70	=70	=70	=70	=70	=70	=70	=70
8EL	2r	2r	2r	2r	4e	16ggLL	8dddL]	2r
.	.	.	.	.	.	16ff	.	.
8EEJ	.	.	.	.	.	16ee	8ccc#XJ	.
.	.	.	.	.	.	16ggJJ	.	.
8FFL	.	.	.	.	4d	16ffLL	16dddLL	.
.	.	.	.	.	.	16ee	16ccc#	.
8GGJ	.	.	.	.	.	16dd	16bbn	.
.	.	.	.	.	.	16ffJJ	16dddJJ	.
=71	=71	=71	=71	=71	=71	=71	=71	=71
8AAL	2r	2r	2r	2r	16aLL	16eeLL	16ccc#XLL	2r
.	.	.	.	.	16aa	16dd	16bbn	.
8FFJ	.	.	.	.	16bn	16ee	16ccc#	.
.	.	.	.	.	16aaJJ	16ffJJ	16dddJJ	.
8EEL	.	.	.	.	16cc#XLL	16ggLL	16eeeLL	.
.	.	.	.	.	16aa	16ff	16ddd	.
8DDJ	.	.	.	.	16dd	16ee	16ccc#	.
.	.	.	.	.	16aaJJ	16ddJJ	16bbJJ	.
=72	=72	=72	=72	=72	=72	=72	=72	=72
8AAL	8AAL	8e	8a	8cc#X	16aLL	8eeL	8ccc#XL	8a
.	.	.	.	.	16aa	.	.	.
8EJ	8EJ	8r	8r	4aa	16bn	8ggJ	16eeL	8r
.	.	.	.	.	16aaJJ	.	16ffJJ	.
8EL	8EL	8e	8g	.	16cc#XLL	8eeL	8ggL	8a
.	.	.	.	.	16aa	.	.	.
16DL	16DL	8r	8r	8cc#	16a	8cc#XJ	16ffL	8r
16EJJ	16EJJ	.	.	.	16aaJJ	.	16ggJJ	.
=73	=73	=73	=73	=73	=73	=73	=73	=73
8FL	8FL	8d	8f	8dd	16ddLL	4a	8aaL	8a
.	.	.	.	.	16aa	.	.	.
16EL	16EL	8r	8r	4aa	16bn	.	16ggL	8r
16DJJ	16DJJ	.	.	.	16aaJJ	.	16ffJJ	.
8EL	8EL	8A	8g	.	16cc#XLL	8r	8ggL	8a
.	.	.	.	.	16aa	.	.	.
8AJ	8AJ	8r	8r	16cc#XLL	16a	16cc#XLL	16eeL	8r
.	.	.	.	16bnJJ	16aaJJ	16ddJJ	16ffJJ	.
=74	=74	=74	=74	=74	=74	=74	=74	=74
8EL	8EL	8g	8a	8cc#X	16cc#XLL	8eeL	8ggL	8a
.	.	.	.	.	16aa	.	.	.
16C#XL	16C#XL	8r	8r	4aa	16ee	8ggJ	16eeL	8r
16DJJ	16DJJ	.	.	.	16aaJJ	.	16ffJJ	.
8EL	8EL	8e	8g	.	16cc#LL	8eeL	8ggL	8a
.	.	.	.	.	16aa	.	.	.
16DL	16DL	8r	8r	8cc#	16a	8cc#XJ	16ffL	8r
16EJJ	16EJJ	.	.	.	16aaJJ	.	16ggJJ	.
=75	=75	=75	=75	=75	=75	=75	=75	=75
8FL	8FL	8d	8f	8dd	16ddLL	8a	8aa	8a
.	.	.	.	.	16aa	.	.	.
16EL	16EL	8r	8r	4aa	16bn	8r	8r	8r
16DJJ	16DJJ	.	.	.	16aaJJ	.	.	.
16ELL	16ELL	8A	8g	.	16cc#XLL	8cc#X	8gg	8a
16D	16D	.	.	.	16aa	.	.	.
16C#X	16C#X	8r	8r	8ee	16a	8r	8r	8r
16EJJ	16EJJ	.	.	.	16aaJJ	.	.	.
=76	=76	=76	=76	=76	=76	=76	=76	=76
16DLL	16DLL	8d	8a	8ff	16ffLL	8dd	8ff	8a
16C#X	16C#X	.	.	.	16aa	.	.	.
16BBn	16BBn	8r	8r	4aa	16dd	8r	8r	8r
16DJJ	16DJJ	.	.	.	16aaJJ	.	.	.
16C#LL	16C#LL	8e	8a	.	16eeLL	8ee	8gg	8a
16D	16D	.	.	.	16aa	.	.	.
16E	16E	8r	8r	8cc#X	16cc#X	8r	8r	8r
16C#JJ	16C#JJ	.	.	.	16aaJJ	.	.	.
=77	=77	=77	=77	=77	=77	=77	=77	=77
16FLL	16FLL	8d	8a	8dd	16ddLL	8a	8aa	8a
16E	16E	.	.	.	16aa	.	.	.
16D	16D	8r	8r	4aa	16bn	8r	8r	8r
16FJJ	16FJJ	.	.	.	16aaJJ	.	.	.
16ELL	16ELL	8c#X	8g	.	16cc#XLL	8cc#X	8gg	8a
16D	16D	.	.	.	16aa	.	.	.
16C#X	16C#X	8r	8r	8ee	16a	8r	8r	8r
16EJJ	16EJJ	.	.	.	16aaJJ	.	.	.
=78	=78	=78	=78	=78	=78	=78	=78	=78
16DLL	16DLL	8d	8a	8ff	16ffLL	8dd	8ff	8a
16C#X	16C#X	.	.	.	16aa	.	.	.
16BBn	16BBn	8r	8r	4aa	16dd	8r	8r	8r
16DJJ	16DJJ	.	.	.	16aaJJ	.	.	.
16C#LL	16C#LL	8e	8a	.	16eeLL	8ee	8ee	8a
16D	16D	.	.	.	16aa	.	.	.
16E	16E	8r	8r	8cc#X	16cc#X	8r	8r	8r
16C#JJ	16C#JJ	.	.	.	16aaJJ	.	.	.
=79	=79	=79	=79	=79	=79	=79	=79	=79
8DL	8DL	8d	8a	4ff	16ffLL	16aLL	8dd	8a
.	.	.	.	.	16dd	16cc#X	.	.
8AJ	8AJ	8r	8r	.	16f	16dd	8r	8r
.	.	.	.	.	16gJJ	16eeJJ	.	.
8dL	8dL	8a	8ff	4ff	16aLL	16ffLL	8r	8r
.	.	.	.	.	16b-	16gg	.	.
8dJ	8dJ	8r	8r	.	16g	16ee	8ddd	8ff
.	.	.	.	.	16aJJ	16ffJJ	.	.
=80	=80	=80	=80	=80	=80	=80	=80	=80
8dL	8dL	8b-	8ee	4gg	16b-LL	16ggLL	8gggL	8bb-L
.	.	.	.	.	16cc	16aa	.	.
16eL	16eL	8r	8r	.	16a	16ff	8gggJ	8bb-J
16dJJ	16dJJ	.	.	.	16b-JJ	16ggJJ	.	.
8cL	8cL	8cc	8g	4ee	16ccLL	16aaLL	8gggL	8bb-L
.	.	.	.	.	16a	16ff	.	.
8cJ	8cJ	8r	8r	.	16b-	16gg	16fffL	16aaL
.	.	.	.	.	16ccJJ	16aaJJ	16ddd#XJJ	16ggJJ
=81	=81	=81	=81	=81	=81	=81	=81	=81
8cL	8cL	8dd	8a	4ff	16fLL	16ddLL	8fffL	8aaL
.	.	.	.	.	16a	16ff	.	.
16dL	16dL	8r	8r	.	16d	16b-	8fffJ	8aaJ
16cJJ	16cJJ	.	.	.	16d#XJJ	16ccJJ	.	.
8B-L	8B-L	8f	8b-	4dd	16fLL	16ddLL	8fffL	8aaL
.	.	.	.	.	16g	16dd#X	.	.
8B-J	8B-J	8r	8r	.	16d#	16cc	16gggL	16bb-L
.	.	.	.	.	16fJJ	16ddnJJ	16fffJJ	16aaJJ
=82	=82	=82	=82	=82	=82	=82	=82	=82
8B-L	8B-L	8g	8cc	8ee-X	16gLL	16ee-XLL	8eee-XL	8ggL
.	.	.	.	.	16a	16ff	.	.
16cL	16cL	8r	8r	8r	16f	16dd	8eee-J	8ggJ
16B-JJ	16B-JJ	.	.	.	16gJJ	16ee-JJ	.	.
8AL	8AL	8a	8e-X	8cc	16aLL	16ffLL	8eee-L	8ggL
.	.	.	.	.	16f	16dd	.	.
8AJ	8AJ	8r	8r	8r	16g	16ee-	16dddL	16ffL
.	.	.	.	.	16aJJ	16ffJJ	16cccJJ	16ee-XJJ
=83	=83	=83	=83	=83	=83	=83	=83	=83
8AL	8AL	8b-	8f	8dd	16dLL	16b-LL	8dddL	8ffL
.	.	.	.	.	16f	16dd	.	.
16B-L	16B-L	8r	8r	8r	16B-	16g	8dddJ	8ffJ
16AJJ	16AJJ	.	.	.	16cJJ	16aJJ	.	.
8GL	8GL	8d	8g	8b-	16dLL	16b-LL	8dddL	8ffL
.	.	.	.	.	16e-X	16cc	.	.
8GJ	8GJ	8r	8r	8r	16c	16a	16eee-XL	16ggL
.	.	.	.	.	16dJJ	16b-JJ	16dddJJ	16ffJJ
=84	=84	=84	=84	=84	=84	=84	=84	=84
8GL	8GL	8e-X	8a	8cc	16e-XLL	16ccLL	8cccL	8ee-XL
.	.	.	.	.	16f	16dd	.	.
16AL	16AL	8r	8r	8r	16d	16b-	8cccJ	8eee-XJ
16GJJ	16GJJ	.	.	.	16e-JJ	16ccJJ	.	.
8F#XL	8F#XL	8d	8a	8a	8AL	16ddLL	8cccL	4aat
.	.	.	.	.	.	16b-	.	.
8F#J	8F#J	8r	8r	8r	8dJ	16cc	16bb-L	.
.	.	.	.	.	.	16ddJJ	16aaJJ	.
=85	=85	=85	=85	=85	=85	=85	=85	=85
8GL	4G	8d	8g	8b-	16dLL	16gLL	4bb-	4gg
.	.	.	.	.	16c	16dd	.	.
8FJ	.	8r	8r	8r	16B-	16ee	.	.
.	.	.	.	.	16AJJ	16ffJJ	.	.
8EL	4r	4r	4r	4r	16GLL	[4gg	4r	4r
.	.	.	.	.	16bn	.	.	.
8DJ	.	.	.	.	16cc#X	.	.	.
.	.	.	.	.	16ddJJ	.	.	.
=86	=86	=86	=86	=86	=86	=86	=86	=86
8C#XL	2r	2r	2r	2r	16eeLL	16ggLL]	2r	2r
.	.	.	.	.	16dd	16ff	.	.
8AJ	.	.	.	.	16cc#X	16ee	.	.
.	.	.	.	.	16eeJJ	16ggJJ	.	.
8dL	.	.	.	.	16ddLL	16ffLL	.	.
.	.	.	.	.	16cc#	16ee	.	.
8DJ	.	.	.	.	16bn	16dd	.	.
.	.	.	.	.	16ddJJ	16ffJJ	.	.
=87	=87	=87	=87	=87	=87	=87	=87	=87
4A	2r	2r	2r	2r	16cc#XLL	8eeL	2r	2r
.	.	.	.	.	16bn	.	.	.
.	.	.	.	.	16a	8aJ	.	.
.	.	.	.	.	16bJJ	.	.	.
8r	.	.	.	.	16cc#LL	[4aa	.	.
.	.	.	.	.	16dd	.	.	.
8A	.	.	.	.	16b	.	.	.
.	.	.	.	.	16cc#JJ	.	.	.
=88	=88	=88	=88	=88	=88	=88	=88	=88
8BnL	2r	2r	2r	2r	16ddLL	8aaL]	2r	2r
.	.	.	.	.	16ee	.	.	.
16AL	.	.	.	.	16cc#X	16ggL	.	.
16BJJ	.	.	.	.	16ddJJ	16ffJJ	.	.
8c#XL	.	.	.	.	16eeLL	8ggL	.	.
.	.	.	.	.	16cc#	.	.	.
16BL	.	.	.	.	16dd	8ggJ	.	.
16c#JJ	.	.	.	.	16eeJJ	.	.	.
=89	=89	=89	=89	=89	=89	=89	=89	=89
4d	2r	2r	2r	2r	4a	16ffLL	8r	2r
.	.	.	.	.	.	16ee	.	.
.	.	.	.	.	.	16dd	8aa	.
.	.	.	.	.	.	16eeJJ	.	.
8r	.	.	.	.	4r	16ff#XLL	[4ddd	.
.	.	.	.	.	.	16gg	.	.
8D	.	.	.	.	.	16ee	.	.
.	.	.	.	.	.	16ff#JJ	.	.
=90	=90	=90	=90	=90	=90	=90	=90	=90
8EL	2r	2r	2r	2r	2r	16ggLL	8dddL]	2r
.	.	.	.	.	.	16aa	.	.
16DL	.	.	.	.	.	16ff#X	16cccL	.
16EJJ	.	.	.	.	.	16ggJJ	16bb-JJ	.
8F#XL	.	.	.	.	.	16aaLL	8cccL	.
.	.	.	.	.	.	16ff#	.	.
16EL	.	.	.	.	.	16gg	8cccJ	.
16F#JJ	.	.	.	.	.	16aaJJ	.	.
=91	=91	=91	=91	=91	=91	=91	=91	=91
4G	2r	2r	2r	2r	8r	4dd	16bb-LL	2r
.	.	.	.	.	.	.	16aa	.
.	.	.	.	.	8dd	.	16gg	.
.	.	.	.	.	.	.	16aaJJ	.
8r	.	.	.	.	[4gg	4r	16bbnLL	.
.	.	.	.	.	.	.	16ccc	.
8G	.	.	.	.	.	.	16aa	.
.	.	.	.	.	.	.	16bbJJ	.
=92	=92	=92	=92	=92	=92	=92	=92	=92
8AL	2r	2r	2r	2r	8ggL]	2r	16cccLL	2r
.	.	.	.	.	.	.	16ddd	.
16GL	.	.	.	.	16ffL	.	16bbn	.
16AJJ	.	.	.	.	16eeJJ	.	16cccJJ	.
8BnL	.	.	.	.	8ffL	.	16dddLL	.
.	.	.	.	.	.	.	16bb	.
16AL	.	.	.	.	8ffJ	.	16ccc	.
16BJJ	.	.	.	.	.	.	16dddJJ	.
=93	=93	=93	=93	=93	=93	=93	=93	=93
4c	2r	2r	2r	2r	16eeLL	2r	4gg	8r
.	.	.	.	.	16dd	.	.	.
.	.	.	.	.	16cc	.	.	8gg
.	.	.	.	.	16ddJJ	.	.	.
8r	.	.	.	.	16eeLL	.	4r	[4ccc
.	.	.	.	.	16ff	.	.	.
8C	.	.	.	.	16dd	.	.	.
.	.	.	.	.	16eeJJ	.	.	.
=94	=94	=94	=94	=94	=94	=94	=94	=94
8DL	2r	2r	2r	2r	16ffLL	2r	2r	8cccL]
.	.	.	.	.	16gg	.	.	.
16CL	.	.	.	.	16ee	.	.	16bb-L
16DJJ	.	.	.	.	16ffJJ	.	.	16aaJJ
8EL	.	.	.	.	16ggLL	.	.	8bb-L
.	.	.	.	.	16ee	.	.	.
16DL	.	.	.	.	16ff	.	.	8bb-J
16EJJ	.	.	.	.	16ggJJ	.	.	.
=95	=95	=95	=95	=95	=95	=95	=95	=95
8FL	2r	2r	2r	2r	16ccLL	2r	2r	16aaLL
.	.	.	.	.	16ff	.	.	16gg
8CJ	.	.	.	.	16a	.	.	16ff
.	.	.	.	.	16b-JJ	.	.	16ggJJ
[4F	.	.	.	.	16ccLL	.	.	16aaLL
.	.	.	.	.	16dd	.	.	16bb-
.	.	.	.	.	16b-	.	.	16gg
.	.	.	.	.	16ccJJ	.	.	16aaJJ
=96	=96	=96	=96	=96	=96	=96	=96	=96
8FL]	2r	2r	2r	2r	16ddLL	2r	2r	16bb-LL
.	.	.	.	.	16ee-X	.	.	16ccc
16E-XL	.	.	.	.	16cc	.	.	16aa
16DJJ	.	.	.	.	16ddJJ	.	.	16bb-JJ
8E-L	.	.	.	.	16gLL	.	.	16cccLL
.	.	.	.	.	16f	.	.	16aa
8E-J	.	.	.	.	16g	.	.	16bb-
.	.	.	.	.	16aJJ	.	.	16cccJJ
=97	=97	=97	=97	=97	=97	=97	=97	=97
8DL	4r	4r	2r	4r	16b-LL	4r	8r	16ffLL
.	.	.	.	.	16cc	.	.	16aa
8BB-J	.	.	.	.	16dd	.	16bb-LL	16gg
.	.	.	.	.	16ee-XJJ	.	16cccJJ	16aaJJ
8r	8r	[4g	.	[4bb-	16ffLL	8r	16dddLL	8bb-L
.	.	.	.	.	16gg	.	16eee-X	.
8GG	8GG	.	.	.	16ee-	8b-	16ccc	8bb-J
.	.	.	.	.	16ffJJ	.	16dddJJ	.
=98	=98	=98	=98	=98	=98	=98	=98	=98
8CL	8CL	8gL]	2ee-X	4bb-]	16ggLL	8ee-XL	16eee-XLL	8bb-L
.	.	.	.	.	16aa	.	16fff	.
8CJ	8CJ	16aL	.	.	16ff	8ee-J	16ddd	16cccL
.	.	16b-JJ	.	.	16ggJJ	.	16eee-JJ	16bb-JJ
8CL	8CL	8ccL	.	[4aa	16aaLL	8ee-L	16fffLL	8aaL
.	.	.	.	.	16ff	.	16ddd	.
16BB-L	16BB-L	8cJ	.	.	16gg	16ddL	16eee-	8aaJ
16AAJJ	16AAJJ	.	.	.	16aaJJ	16ccJJ	16fffJJ	.
=99	=99	=99	=99	=99	=99	=99	=99	=99
8BB-L	8BB-L	4f	2dd	4aa]	16ddLL	8ddL	16bb-LL	8aaL
.	.	.	.	.	16ff	.	16ddd	.
8BB-J	8BB-J	.	.	.	16b-	8ddJ	16gg	16bb-L
.	.	.	.	.	16ccJJ	.	16aaJJ	16aaJJ
8BB-L	8BB-L	8r	.	[4gg	16ddLL	8ddL	16bb-LL	8ggL
.	.	.	.	.	16ee-X	.	16ccc	.
16CL	16CL	8b-	.	.	16cc	16ee-XL	16aa	8ggJ
16BB-JJ	16BB-JJ	.	.	.	16ddJJ	16ddJJ	16bb-JJ	.
=100	=100	=100	=100	=100	=100	=100	=100	=100
8AAL	8AAL	8e-XL	2cc	4gg]	16ee-XLL	8ccL	16cccLL	8ggL
.	.	.	.	.	16ff	.	16ddd	.
8AAJ	8AAJ	16fL	.	.	16dd	8ccJ	16bb-	16aaL
.	.	16gJJ	.	.	16ee-JJ	.	16cccJJ	16ggJJ
8AAL	8AAL	8aL	.	[4ff	16ffLL	8ccL	16dddLL	8ffL
.	.	.	.	.	16dd	.	16bb-	.
16GGL	16GGL	8AJ	.	.	16ee-	16b-L	16ccc	8ffJ
16FFJJ	16FFJJ	.	.	.	16ffJJ	16aJJ	16dddJJ	.
=101	=101	=101	=101	=101	=101	=101	=101	=101
8GGL	8GGL	4d	2b-	4ff]	16b-LL	8b-L	16ggLL	8ffL
.	.	.	.	.	16dd	.	16bb-	.
8GGJ	8GGJ	.	.	.	16g	8b-J	16ee-X	16ggL
.	.	.	.	.	16a-XJJ	.	16ffJJ	16ffJJ
8GGL	8GGL	8r	.	[4ee-X	16b-LL	8b-L	16ggLL	8ee-XL
.	.	.	.	.	16cc	.	16aa-X	.
16AA-XL	16AA-XL	8g	.	.	16a-	16ccL	16ff	8eee-XJ
16GGJJ	16GGJJ	.	.	.	16b-JJ	16b-JJ	16ggJJ	.
=102	=102	=102	=102	=102	=102	=102	=102	=102
8FFL	8FFL	8cL	2a-X	4ee-]	16ccLL	8a-XL	16aa-XLL	8eee-XL
.	.	.	.	.	16dd	.	16bb-	.
8FFJ	8FFJ	8cJ	.	.	16b-	8a-J	16gg	16fffL
.	.	.	.	.	16ccJJ	.	16aa-JJ	16eee-JJ
8FFL	8FFL	8fL	.	[4dd	16ddLL	8a-L	16bb-LL	8dddL
.	.	.	.	.	16b-	.	16gg	.
16GGL	16GGL	8fJ	.	.	16cc	16b-L	16aa-	8dddJ
16FFJJ	16FFJJ	.	.	.	16ddJJ	16a-JJ	16bb-JJ	.
=103	=103	=103	=103	=103	=103	=103	=103	=103
4EE-X	4EE-X	8B-L	2g	8ddL]	16gLL	16gLL	4ee-X	8dddL
.	.	.	.	.	16cc	16aa-X	.	.
.	.	16cL	.	8gJ	16b-	16gg	.	16eee-XL
.	.	16dJJ	.	.	16a-XJJ	16ffJJ	.	16dddJJ
8r	8r	8e-XL	.	8ccL	16gLL	16ee-XLL	8r	16cccLL
.	.	.	.	.	16f	16dd	.	16bb-
[8E-X	[8E-X	8dJ	.	16ddL	16e-X	16cc	8gg	16aa
.	.	.	.	16ee-XJJ	16dJJ	16b-JJ	.	16ggJJ
=104	=104	=104	=104	=104	=104	=104	=104	=104
8F-XL	8E-L]	8c	8f	8a	16cLL	16aLL	8cccL	8ff
.	.	.	.	.	16d	16b-	.	.
16FnL	16FL	8r	8r	8r	16B-	16g	8ffJ	8r
16E-XJJ	16E-XJJ	.	.	.	16cJJ	16aJJ	.	.
8DL	8DL	8d	8f	8b-	16dLL	16b-LL	8bb-L	8ff
.	.	.	.	.	16e-X	16cc	.	.
16E-L	16E-L	8r	8r	8r	16c	16a	8ffJ	8r
16DJJ	16DJJ	.	.	.	16dJJ	16b-JJ	.	.
=105	=105	=105	=105	=105	=105	=105	=105	=105
8CL	8CL	8d-X	8a	8cc	16e-XLL	16ccLL	8aaL	8ff
.	.	.	.	.	16f	16dd	.	.
16DL	16DL	8r	8r	8r	16d	16b-	8ffJ	8r
16CJJ	16CJJ	.	.	.	16e-JJ	16ccJJ	.	.
8BB-L	8BB-L	8f	8b-	[4dd	8fL	16ddLL	8bb-L	8ff
.	.	.	.	.	.	16cc	.	.
8DJ	8DJ	8r	8r	.	[8fJ	16b-	16dddL	8r
.	.	.	.	.	.	16aJJ	16cccJJ	.
=106	=106	=106	=106	=106	=106	=106	=106	=106
8E-XL	8E-XL	8B-L	8gL	8ddL]	8fL]	16gLL	8bb-L	8gg
.	.	.	.	.	.	16a	.	.
8CJ	8CJ	8e-XJ	8gJ	16ccL	16e-XL	16b-	8gggJ	8r
.	.	.	.	16b-JJ	16dJJ	16ccJJ	.	.
8FL	8FL	8cL	8fL	8.aL	8.cL	8.aL	8cccL	8ff
8FFJ	8FFJ	8fJ	8fJ	.	.	.	8fffJ	8r
.	.	.	.	16b-Jk	16B-Jk	16b-Jk	.	.
=107	=107	=107	=107	=107	=107	=107	=107	=107
8BB-	4BB-	4d	4f	4b-	4B-	8b-L	4ddd	8ffL
8r	.	.	.	.	.	8ffJ	.	16bb-L
.	.	.	.	.	.	.	.	16cccJJ
8BB-	4r	4r	4r	4r	4r	8ffL	4r	8dddL
8r	.	.	.	.	.	16ee-XL	.	16cccL
.	.	.	.	.	.	16ffJJ	.	16dddJJ
=108	=108	=108	=108	=108	=108	=108	=108	=108
8BB-	2r	2r	2r	2r	2r	8ggL	2r	8eee-XL
8r	.	.	.	.	.	16ffL	.	16dddL
.	.	.	.	.	.	16ee-XJJ	.	16cccJJ
8BB-	.	.	.	.	.	8ffL	.	8dddL
8r	.	.	.	.	.	8bb-J	.	16bb-L
.	.	.	.	.	.	.	.	16cccJJ
=109	=109	=109	=109	=109	=109	=109	=109	=109
8BB-	2r	2r	2r	2r	2r	8ffL	2r	8dddL
8r	.	.	.	.	.	16ddL	.	16bb-L
.	.	.	.	.	.	16ee-XJJ	.	16cccJJ
8BB-L	.	.	.	.	.	8ffL	.	8dddL
16CL	.	.	.	.	.	16ee-L	.	[8dddJ
16DJJ	.	.	.	.	.	16ffJJ	.	.
=110	=110	=110	=110	=110	=110	=110	=110	=110
8E-XL	2r	2r	2r	2r	2r	8ggL	2r	8ddd]
16DL	.	.	.	.	.	16ffL	.	4ccc
16CJJ	.	.	.	.	.	16ee-XJJ	.	.
8DL	.	.	.	.	.	16ffLL	.	.
.	.	.	.	.	.	16ee-	.	.
8GJ	.	.	.	.	.	16dd	.	[8bb-
.	.	.	.	.	.	16ffJJ	.	.
=111	=111	=111	=111	=111	=111	=111	=111	=111
8CL	2r	2r	2r	2r	2r	16ee-XLL	2r	8bb-L]
.	.	.	.	.	.	16dd	.	.
8FJ	.	.	.	.	.	16cc	.	8aaJ
.	.	.	.	.	.	16ee-JJ	.	.
8B-L	.	.	.	.	.	16ddLL	.	16bb-LL
.	.	.	.	.	.	16cc	.	16aa
8BB-J	.	.	.	.	.	16b-	.	16gg
.	.	.	.	.	.	16ddJJ	.	16bb-JJ
=112	=112	=112	=112	=112	=112	=112	=112	=112
8FL	2r	2r	2r	2r	2r	16ccLL	2r	16aaLL
.	.	.	.	.	.	16b-	.	16gg
8BB-J	.	.	.	.	.	16cc	.	16aa
.	.	.	.	.	.	16ddJJ	.	16bb-JJ
8AAL	.	.	.	.	.	16ee-XLL	.	16cccLL
.	.	.	.	.	.	16dd	.	16bb-
8BB-J	.	.	.	.	.	16cc	.	16aa
.	.	.	.	.	.	16b-JJ	.	16ggJJ
=113	=113	=113	=113	=113	=113	=113	=113	=113
8FL	2r	2r	2r	2r	2r	8ccL	8ffL	8aa
16AL	.	.	.	.	.	16fL	8cccJ	8r
16GJJ	.	.	.	.	.	16gJJ	.	.
8FL	.	.	.	.	.	8aL	8cccL	8f
8FFJ	.	.	.	.	.	16gL	16bb-L	8r
.	.	.	.	.	.	16aJJ	16cccJJ	.
=114	=114	=114	=114	=114	=114	=114	=114	=114
8BB-L	2r	2r	2r	2r	2r	8b-L	8dddL	8f
8B-J	.	.	.	.	.	16aL	16cccL	8r
.	.	.	.	.	.	16gJJ	16bb-JJ	.
8FL	.	.	.	.	.	8aL	8cccL	8f
16AL	.	.	.	.	.	16fL	8fffJ	8r
16GJJ	.	.	.	.	.	16gJJ	.	.
=115	=115	=115	=115	=115	=115	=115	=115	=115
8FL	2r	2r	2r	2r	2r	8aL	8cccL	8f
16AL	.	.	.	.	.	16fL	16aaL	8r
16GJJ	.	.	.	.	.	16gJJ	16bb-JJ	.
8FL	.	.	.	.	.	8aL	8cccL	8f
8FFJ	.	.	.	.	.	16gL	16bb-L	8r
.	.	.	.	.	.	16aJJ	16cccJJ	.
=116	=116	=116	=116	=116	=116	=116	=116	=116
8BB-	2r	2r	2r	2r	2r	8b-	8dddL	8ff
8r	.	.	.	.	.	8r	16cccL	4gg
.	.	.	.	.	.	.	16bb-JJ	.
8F	.	.	.	.	.	8a	16cccLL	.
.	.	.	.	.	.	.	16bb-	.
8r	.	.	.	.	.	8r	16aa	[8ff
.	.	.	.	.	.	.	16cccJJ	.
=117	=117	=117	=117	=117	=117	=117	=117	=117
8GL	2r	2r	2r	2r	2r	8g	16bb-LL	8ffL]
.	.	.	.	.	.	.	16aa	.
8GGJ	.	.	.	.	.	8r	16gg	8eetJ
.	.	.	.	.	.	.	16bb-JJ	.
8AAL	.	.	.	.	.	8f	16aaLL	16ffLL
.	.	.	.	.	.	.	16gg	16gg
8BB-J	.	.	.	.	.	8r	16ff	16aa
.	.	.	.	.	.	.	16aaJJ	16ffJJ
=118	=118	=118	=118	=118	=118	=118	=118	=118
8CL	2r	2r	2r	2r	16ccLL	16eLL	16ggLL	4ccc
.	.	.	.	.	16ccc	16d	16ff	.
8AAJ	.	.	.	.	16dd	16e	16gg	.
.	.	.	.	.	16cccJJ	16fJJ	16aaJJ	.
8GGL	.	.	.	.	16eeLL	16gLL	16bb-LL	4r
.	.	.	.	.	16ccc	16f	16aa	.
8FFJ	.	.	.	.	16ff	16e	16gg	.
.	.	.	.	.	16cccJJ	16dJJ	16ffJJ	.
=119	=119	=119	=119	=119	=119	=119	=119	=119
8CL	8CL	8g	8cc	8ee	16ccLL	8eL	8ggL	8cc
.	.	.	.	.	16ccc	.	.	.
8GJ	8GJ	8r	8r	4ccc	16dd	8bb-J	16gL	8r
.	.	.	.	.	16cccJJ	.	16aJJ	.
8GL	8GL	8g	8b-	.	16eeLL	8ggL	8b-L	8cc
.	.	.	.	.	16ccc	.	.	.
16FL	16FL	8r	8r	8ee	16cc	8eeJ	16aL	8r
16GJJ	16GJJ	.	.	.	16cccJJ	.	16b-JJ	.
=120	=120	=120	=120	=120	=120	=120	=120	=120
8AL	8AL	8f	8a	8ff	16ffLL	4cc	8ccL	8cc
.	.	.	.	.	16ccc	.	.	.
16GL	16GL	8r	8r	4ccc	16dd	.	16b-L	8r
16FJJ	16FJJ	.	.	.	16cccJJ	.	16aJJ	.
8GL	8GL	8c	8b-	.	16eeLL	8r	8b-L	8cc
.	.	.	.	.	16ccc	.	.	.
8cJ	8cJ	8r	8r	16eeLL	16cc	16eeLL	16gL	8r
.	.	.	.	16ddJJ	16cccJJ	16ffJJ	16aJJ	.
=121	=121	=121	=121	=121	=121	=121	=121	=121
8GL	8GL	8b-	8cc	8ee	16eeLL	8ggL	8b-L	8cc
.	.	.	.	.	16ccc	.	.	.
16EL	16EL	8r	8r	4ccc	16gg	8bb-J	16gL	8r
16FJJ	16FJJ	.	.	.	16cccJJ	.	16aJJ	.
8GL	8GL	8g	8b-	.	16eeLL	8ggL	8b-L	8cc
.	.	.	.	.	16ccc	.	.	.
16FL	16FL	8r	8r	8ee	16cc	8eeJ	16aL	8r
16GJJ	16GJJ	.	.	.	16cccJJ	.	16b-JJ	.
=122	=122	=122	=122	=122	=122	=122	=122	=122
8AL	8AL	8f	8a	8ff	16ffLL	8cc	8cc	8cc
.	.	.	.	.	16ccc	.	.	.
16GL	16GL	8r	8r	4ccc	16dd	8r	8r	8r
16FJJ	16FJJ	.	.	.	16cccJJ	.	.	.
16GLL	16GLL	8c	8b-	.	16eeLL	8ee	8b-	8cc
16F	16F	.	.	.	16ccc	.	.	.
16E	16E	8r	8r	8gg	16cc	8r	8r	8r
16GJJ	16GJJ	.	.	.	16cccJJ	.	.	.
=123	=123	=123	=123	=123	=123	=123	=123	=123
16FLL	16FLL	8f	8cc	8aa	16aaLL	8ff	8a	8cc
16E	16E	.	.	.	16ccc	.	.	.
16D	16D	8r	8r	4ccc	16ff	8r	8r	8r
16FJJ	16FJJ	.	.	.	16cccJJ	.	.	.
16ELL	16ELL	8g	8cc	.	16ggLL	8gg	8b-	8cc
16F	16F	.	.	.	16ccc	.	.	.
16G	16G	8r	8r	8ee	16ee	8r	8r	8r
16EJJ	16EJJ	.	.	.	16cccJJ	.	.	.
=124	=124	=124	=124	=124	=124	=124	=124	=124
16ALL	16ALL	8f	8cc	8ff	16ffLL	8cc	8cc	8cc
16G	16G	.	.	.	16ccc	.	.	.
16F	16F	8r	8r	4ccc	16dd	8r	8r	8r
16AJJ	16AJJ	.	.	.	16cccJJ	.	.	.
16GLL	16GLL	8e	8b-	.	16eeLL	8ee	8b-	8cc
16F	16F	.	.	.	16ccc	.	.	.
16E	16E	8r	8r	8gg	16cc	8r	8r	8r
16GJJ	16GJJ	.	.	.	16cccJJ	.	.	.
=125	=125	=125	=125	=125	=125	=125	=125	=125
16FLL	16FLL	8f	8cc	8aa	16aaLL	8ff	8a	8cc
16E	16E	.	.	.	16ccc	.	.	.
16D	16D	8r	8r	4ccc	16ff	8r	8r	8r
16FJJ	16FJJ	.	.	.	16cccJJ	.	.	.
16ELL	16ELL	8g	8cc	.	16ggLL	8gg	8g	8cc
16D	16D	.	.	.	16ccc	.	.	.
16C	16C	8r	8r	8ee	16ee	8r	8r	8r
16EJJ	16EJJ	.	.	.	16cccJJ	.	.	.
=126	=126	=126	=126	=126	=126	=126	=126	=126
16DLL	16DLL	4f	4a	4ff	8ffL	4dd	8fL	8aL
16E	16E	.	.	.	.	.	.	.
16F	16F	.	.	.	16eeL	.	8cccJ	16aaL
16GJJ	16GJJ	.	.	.	16ddJJ	.	.	16bb-JJ
16ALL	16ALL	4g	4cc	[4ff	8ccL	8r	8fffL	16cccLL
16B-	16B-	.	.	.	.	.	.	16ddd
16G	16G	.	.	.	8ffJ	8cc	8fffJ	16bb-
16AJJ	16AJJ	.	.	.	.	.	.	16cccJJ
=127	=127	=127	=127	=127	=127	=127	=127	=127
16B-LL	16B-LL	2g	2b-	4ff]	8bb-L	8ggL	8fffL	16dddLL
16c	16c	.	.	.	.	.	.	16eee-X
16A	16A	.	.	.	8bb-J	8ggJ	16gggL	16ccc
16B-JJ	16B-JJ	.	.	.	.	.	16fffJJ	16dddJJ
16cLL	16cLL	.	.	[4ee	8bb-L	8ggL	8eeeL	16eee-LL
16A	16A	.	.	.	.	.	.	16ccc
16B-	16B-	.	.	.	16aaL	16ffL	8eeeJ	16ddd
16cJJ	16cJJ	.	.	.	16ggJJ	16eeJJ	.	16eee-JJ
=128	=128	=128	=128	=128	=128	=128	=128	=128
16FLL	16FLL	2f	2a	4ee]	8aaL	8ffL	8eeeL	16aaLL
16A	16A	.	.	.	.	.	.	16ccc
16D	16D	.	.	.	8aaJ	8ffJ	16fffL	16ff
16EJJ	16EJJ	.	.	.	.	.	16eeeJJ	16ggJJ
16FLL	16FLL	.	.	[4dd	8aaL	8ffL	8dddL	16aaLL
16G	16G	.	.	.	.	.	.	16bb-
16E	16E	.	.	.	16bb-L	16ggL	8dddJ	16gg
16FJJ	16FJJ	.	.	.	16aaJJ	16ffJJ	.	16aaJJ
=129	=129	=129	=129	=129	=129	=129	=129	=129
16GLL	16GLL	2e	2g	4dd]	8ggL	8eeL	8dddL	16bb-LL
16A	16A	.	.	.	.	.	.	16ccc
16F	16F	.	.	.	8ggJ	8eeJ	16eeeL	16aa
16GJJ	16GJJ	.	.	.	.	.	16dddJJ	16bb-JJ
16ALL	16ALL	.	.	[4cc	8ggL	8eeL	8cccL	16cccLL
16F	16F	.	.	.	.	.	.	16aa
16G	16G	.	.	.	16ffL	16ddL	8cccJ	16bb-
16AJJ	16AJJ	.	.	.	16eeJJ	16ccJJ	.	16cccJJ
=130	=130	=130	=130	=130	=130	=130	=130	=130
16DLL	16DLL	2d	2f	4cc]	8ffL	8ddL	8cccL	16ffLL
16F	16F	.	.	.	.	.	.	16aa
16BB-	16BB-	.	.	.	8ffJ	8ddJ	16dddL	16gg
16CJJ	16CJJ	.	.	.	.	.	16cccJJ	16aaJJ
16DLL	16DLL	.	.	[4b-	8ffL	8ddL	8bb-L	16bb-LL
16E	16E	.	.	.	.	.	.	16ccc
16C	16C	.	.	.	16ggL	16eeL	8bb-J	16aa
16DJJ	16DJJ	.	.	.	16ffJJ	16ddJJ	.	16bb-JJ
=131	=131	=131	=131	=131	=131	=131	=131	=131
16ELL	16ELL	2c	4g	4b-]	8eeL	8ccL	8bb-L	16cccLL
16F	16F	.	.	.	.	.	.	16aa
16D	16D	.	.	.	16aaL	8ccJ	16cccL	16ff
16EJJ	16EJJ	.	.	.	16ggJJ	.	16bb-JJ	16ggJJ
16FLL	16FLL	.	4f	[4a	16ffLL	8ccL	8aaL	16aaLL
16D	16D	.	.	.	16ee-X	.	.	16bb-
16E-X	16E-X	.	.	.	16dd	16b-L	8aaJ	16ccc
16FJJ	16FJJ	.	.	.	16ccJJ	16aJJ	.	16aaJJ
=132	=132	=132	=132	=132	=132	=132	=132	=132
4BB-	4BB-	8dL	8fL	8aL]	4dd	16b-LL	8aaL	16dddLL
.	.	.	.	.	.	16gg	.	16eee-X
.	.	8fJ	8aJ	8ddJ	.	16ff	16bb-L	16ddd
.	.	.	.	.	.	16ee-XJJ	16aaJJ	16cccJJ
8r	8r	8b-L	4dd	8ggL	8r	16ddLL	16ggLL	16bb-LL
.	.	.	.	.	.	16cc	16ff	16aa
[8B-	[8B-	8aJ	.	16aaL	8d	16b-	16ee	16gg
.	.	.	.	16bb-JJ	.	16aJJ	16ddJJ	16ffJJ
=133	=133	=133	=133	=133	=133	=133	=133	=133
8B-L]	8B-L]	4g	4cc	4ee	8gL	16gLL	16eeLL	4ccc
.	.	.	.	.	.	16a	16ff	.
16cL	16cL	.	.	.	8cJ	16f	16dd	.
16B-JJ	16B-JJ	.	.	.	.	16gJJ	16eeJJ	.
8AL	8AL	4a	4cc	4ff	8fL	16aLL	16ffLL	4ccc
.	.	.	.	.	.	16b-	16gg	.
16B-L	16B-L	.	.	.	8cJ	16g	16ee	.
16AJJ	16AJJ	.	.	.	.	16aJJ	16ffJJ	.
=134	=134	=134	=134	=134	=134	=134	=134	=134
8GL	8GL	4b-	4ee	4gg	8eL	16b-LL	16ggLL	4ccc
.	.	.	.	.	.	16cc	16aa	.
16AL	16AL	.	.	.	8cJ	16a	16ff	.
16GJJ	16GJJ	.	.	.	.	16b-JJ	16ggJJ	.
8FL	8FL	4cc	4ff	[4aa	8fL	8ccL	16aaLL	4ccc
.	.	.	.	.	.	.	16gg	.
8AAJ	8AAJ	.	.	.	16aL	[8ccJ	16ff	.
.	.	.	.	.	16gJJ	.	16eeJJ	.
=135	=135	=135	=135	=135	=135	=135	=135	=135
8BB-L	8BB-L	8fL	8ddL	8aaL]	8fL	8ccL]	16ddLL	2r
.	.	.	.	.	.	.	16ee	.
8GGJ	8GGJ	8b-J	8ddJ	16ggL	8ddJ	16b-L	16ff	.
.	.	.	.	16ffJJ	.	16aJJ	16ggJJ	.
8CL	8CL	8gL	8ccL	8.eeL	8eL	8.gL	8.eeL	.
8CCJ	8CCJ	8gJ	8ccJ	.	8ccJ	.	.	.
.	.	.	.	16ffJk	.	16fJk	16ffJk	.
=136	=136	=136	=136	=136	=136	=136	=136	=136
4FF	4FF	4a	4cc	4ff	8aL	4f	4ff	8ffL
.	.	.	.	.	16fL	.	.	8cccJ
.	.	.	.	.	16gJJ	.	.	.
4FF	4FF	4cc	4ee-X	4ff	8aL	4cc	4ee-X	8cccL
.	.	.	.	.	16gL	.	.	16bb-L
.	.	.	.	.	16aJJ	.	.	16cccJJ
=137	=137	=137	=137	=137	=137	=137	=137	=137
4FF	4FF	4b-	4dd	4ff	8b-L	4b-	4dd	8dddL
.	.	.	.	.	16aL	.	.	16cccL
.	.	.	.	.	16gJJ	.	.	16bb-JJ
4FF	4FF	4f	4a	4ff	8aL	4ff	4aa	8cccL
.	.	.	.	.	16fL	.	.	8fffJ
.	.	.	.	.	16gJJ	.	.	.
=138	=138	=138	=138	=138	=138	=138	=138	=138
4FF	4FF	4a	4cc	4ff	8aL	4a	4ff	8cccL
.	.	.	.	.	16fL	.	.	16aaL
.	.	.	.	.	16gJJ	.	.	16bb-JJ
4FF	4FF	4cc	4ee-X	4ff	8aL	4cc	4ee-X	8cccL
.	.	.	.	.	16gL	.	.	16bb-L
.	.	.	.	.	16aJJ	.	.	16cccJJ
=139	=139	=139	=139	=139	=139	=139	=139	=139
4FF	4FF	4b-	4dd	4ff	8b-L	4b-	4dd	8dddL
.	.	.	.	.	16aL	.	.	16cccL
.	.	.	.	.	16gJJ	.	.	16bb-JJ
4FF;	4FF;	4f;	4a;	4ff;	4f;	4ff;	4aa;	4ccc;
==	==	==	==	==	==	==	==	==
*-	*-	*-	*-	*-	*-	*-	*-	*-
!!!system-decoration: [(s1,s2,s3,s4)][([(s5,s6)]s7,s8,s9)]
